X: 4277
T: FALLS OF CLYDE
R: Hornpipe.
%R: hornpipe, reel
B: James Kerr "Merry Melodies" v.4 p.29 #277
Z: 2016 John Chambers <jc:trillian.mit.edu>
M: C|
L: 1/8
K: A
|:\
e(aga) f(aga) | e(aga) ecAc | dfdB cecA |\
[1 dcBA GBcd :|[2 GABc A2(BA) |]
|:\
G(e^de) g(ede) | A(e^de) a(ede) |\
[1 G(e^de) g(ede) | agfe dcBA :|\
[2 gbge faf^d | efgf e=dcd |]

%%sep 1 1 500
%%sep 1 1 500

